packages/foundations/assets/icons/functional/images/file/image_14.svg

<svg width="14" height="14" viewBox="0 0 14 14" fill="none" xmlns="http://www.w3.org/2000/svg">
<g clip-path="url(#clip0_185_964)">
<path fill-rule="evenodd" clip-rule="evenodd" d="M10.5 2.09998C11.238 2.09998 11.904 2.7512 11.9001 3.49999V10.5C11.9001 11.238 11.2365 11.9048 10.5 11.9H3.49998C2.76192 11.9 2.10369 11.2694 2.09998 10.5V3.49999C2.09998 2.76193 2.75291 2.10119 3.49998 2.09998H10.5ZM9.09998 7.98979L7.49495 9.59496C7.3283 9.76161 7.09067 9.83186 6.86326 9.78652L4.95388 9.15529L3.49998 9.88189V10.5H10.5V9.38994L9.09998 7.98979ZM10.5 3.49999H3.49998V8.31669L4.58693 7.77389C4.7253 7.7047 4.88186 7.68368 5.03213 7.71257L6.81028 8.29849L8.605 6.50501C8.87837 6.23164 9.32158 6.23164 9.59495 6.50501L10.5 7.40949V3.49999ZM5.24998 4.19999C5.82993 4.19999 6.29998 4.67012 6.29998 5.24999C6.29998 5.82985 5.82993 6.29999 5.24998 6.29999C4.67002 6.29999 4.19998 5.82985 4.19998 5.24999C4.19998 4.67012 4.67002 4.19999 5.24998 4.19999Z" fill="#1A1C1F"/>
</g>
<defs>
<clipPath id="clip0_185_964">
<rect width="14" height="14" fill="white"/>
</clipPath>
</defs>
</svg>

<svg xmlns="http://www.w3.org/2000/svg" width="14" height="14" fill="none"><g clip-path="url(#a)"><path fill="#1A1C1F" fill-rule="evenodd" d="M10.5 2.1c.738 0 1.404.651 1.4 1.4v7c0 .738-.664 1.405-1.4 1.4h-7c-.738 0-1.396-.63-1.4-1.4v-7c0-.738.653-1.399 1.4-1.4zM9.1 7.99 7.495 9.595a.7.7 0 0 1-.632.192l-1.91-.632-1.453.727v.618h7V9.39zm1.4-4.49h-7v4.817l1.087-.543a.7.7 0 0 1 .445-.061l1.778.585 1.795-1.793a.7.7 0 0 1 .99 0l.905.904zm-5.25.7a1.05 1.05 0 1 1 0 2.1 1.05 1.05 0 0 1 0-2.1" clip-rule="evenodd"/></g><defs><clipPath id="a"><path fill="#fff" d="M0 0h14v14H0z"/></clipPath></defs></svg>
